X: 1
T:Twa Bonnie Maidens
M:4/4
L:1/8
Q:140
C:Traditional
S:RWW 40
R:Hornpipe
Z:First in set with Rights of Man
K:G
ge|:"G"d2 G2 "Em"B2 AG|"G"d2 G2 "Em"cBAG|
"Am"e2 A2 A2 "Em"gf|"Am"e2 A>BA2 "D"Bc|!
"G"d2 Bd "C"g2 fe|"D"dedc "Em"BAGA|
"C"BAGE "D"DEGA|1"G"B2 G2 G2 ge:|
|2"G"B2G2 G2 ga|:!
"G"b2 gb "D"a2 fa|"Em"geeg "G"d2 cB||
"Am"e2 A2 ABcd|"Am"e2 AG "D"A2 ga|!
"G"bagb "D"agfa|"Em"gfge "C"edcB|
"D"cBAG "G"DEGA|1"C"B2 GF "G"G2 ga:|
|2"C"B2 GF "G"G2 ge||
% Output from ABC2Win  Version 2.1  on 2/18/98



